src/next/cmd/sc_setoptimalcolumnwidth.svg

<svg height="16" width="16" xmlns="http://www.w3.org/2000/svg" xmlns:xlink="http://www.w3.org/1999/xlink"><linearGradient id="a"><stop offset="0" stop-color="#828282"/><stop offset="1" stop-color="#828282" stop-opacity="0"/></linearGradient><linearGradient id="b" gradientTransform="matrix(.30769997 0 0 1.3043803 46.358974 -8.351998)" gradientUnits="userSpaceOnUse" x1="46.048" x2="46.048" y1="128.01709" y2="16.6203"><stop offset="0" stop-color="#c7cdd7"/><stop offset="1" stop-color="#fff"/></linearGradient><linearGradient id="c"><stop offset="0" stop-color="#0968ef"/><stop offset="1" stop-color="#aecffc"/></linearGradient><linearGradient id="d" gradientTransform="matrix(.3077 0 0 1.3091052 44.717949 -36.656871)" gradientUnits="userSpaceOnUse" x1="114.6638" x2="114.6638" y1="101.334" y2="112.0004"><stop offset="0" stop-color="#c9d1dc"/><stop offset="1" stop-color="#c9d1dc" stop-opacity="0"/></linearGradient><linearGradient id="e" gradientTransform="matrix(2 0 0 1.2 32.000002 -9.599998)" gradientUnits="userSpaceOnUse" x1="8" x2="8" xlink:href="#a" y1="88" y2="108"/><linearGradient id="f" gradientTransform="matrix(.183616 0 0 -.01462967 -.962917 -7.25873)" gradientUnits="userSpaceOnUse" x1="67.266975" x2="58.405445" y1="280.20084" y2="-11417.511"><stop offset="0"/><stop offset="1" stop-color="#fff"/></linearGradient><linearGradient id="g" gradientTransform="matrix(2 0 0 1.2 72.000002 -9.599998)" gradientUnits="userSpaceOnUse" x1="8" x2="8" xlink:href="#a" y1="88" y2="108"/><linearGradient id="h" gradientTransform="matrix(-1 0 0 -1 108.0355 88.00001)" gradientUnits="userSpaceOnUse" x1="113.15723" x2="39.268185" xlink:href="#c" y1="25.786163" y2="25.786163"/><linearGradient id="i" gradientTransform="matrix(1 0 0 -1 19.964498 88.00001)" gradientUnits="userSpaceOnUse" x1="113.15723" x2="39.268185" xlink:href="#c" y1="25.786163" y2="25.786163"/><g transform="scale(.125)"><path d="m48 96h32v17.4543h-32z" fill="url(#d)" opacity=".764706"/><path d="m48 16h32v80h-32z" fill="url(#b)"/><text x="552.36987" y="202.81038"><tspan fill="#555" x="552.36987" y="219.61037"/></text><path d="m40 96h8v24h-8z" fill="url(#e)"/><text x="284.18808" y="202.81038"><tspan fill="#555" x="284.18808" y="219.61037"/></text><text x="-10.252362" y="133.87732"><tspan fill="#555" x="-10.252362" y="150.67731"/></text><text x="161.66467" y="-39.856026"><tspan fill="#555" x="161.66467" y="-23.056038"/></text><path d="m40 16v4 20 4 20 4 26.3125 1.6875h8 32 8v-1.6875-26.3125-4-20-4-20-4zm8 4h32v20h-32zm0 24h32v20h-32zm0 24h32v26.3125h-32z" fill="url(#f)"/><text x="681.37421" y="191.74835"><tspan fill="#555" x="681.37421" y="208.54834"/></text><text x="386.93372" y="122.81529"><tspan fill="#555" x="386.93372" y="139.61528"/></text><text x="916.79553" y="269.00107"><tspan fill="#555" x="916.79553" y="285.80106"/></text><path d="m80 96h8v24h-8z" fill="url(#g)"/><g fill-rule="evenodd"><path d="m128.12047 60-24 20.00001-3.97484-3.97484 7.79874-12.02517h-19.94437v-8h19.94437l-7.79874-11.8239 3.97484-4.1761z" fill="url(#i)"/><path d="m-.12047 60 24 20.00001 3.97484-3.97484-7.79874-12.02517h19.94437v-8h-19.94437l7.79874-11.8239-3.97484-4.1761z" fill="url(#h)"/></g></g></svg>

<?xml version="1.0" encoding="UTF-8" standalone="no"?>
<svg
   xmlns:dc="http://purl.org/dc/elements/1.1/"
   xmlns:cc="http://creativecommons.org/ns#"
   xmlns:rdf="http://www.w3.org/1999/02/22-rdf-syntax-ns#"
   xmlns:svg="http://www.w3.org/2000/svg"
   xmlns="http://www.w3.org/2000/svg"
   xmlns:xlink="http://www.w3.org/1999/xlink"
   xmlns:sodipodi="http://sodipodi.sourceforge.net/DTD/sodipodi-0.dtd"
   xmlns:inkscape="http://www.inkscape.org/namespaces/inkscape"
   height="16"
   width="16"
   version="1.1"
   id="svg77"
   sodipodi:docname="sc_setoptimalcolumnwidth.svg"
   inkscape:version="0.92.3 (2405546, 2018-03-11)"
   inkscape:export-filename="/home/rizmut/Dokumen/Rizmut/Github/libreoffice-style-karasa-jaga/build/next/cmd/sc_setoptimalcolumnwidth.png"
   inkscape:export-xdpi="96"
   inkscape:export-ydpi="96">
  <metadata
     id="metadata83">
    <rdf:RDF>
      <cc:Work
         rdf:about="">
        <dc:format>image/svg+xml</dc:format>
        <dc:type
           rdf:resource="http://purl.org/dc/dcmitype/StillImage" />
        <dc:title></dc:title>
      </cc:Work>
    </rdf:RDF>
  </metadata>
  <defs
     id="defs81" />
  <sodipodi:namedview
     pagecolor="#ffffff"
     bordercolor="#666666"
     borderopacity="1"
     objecttolerance="10"
     gridtolerance="10"
     guidetolerance="10"
     inkscape:pageopacity="0"
     inkscape:pageshadow="2"
     inkscape:window-width="1366"
     inkscape:window-height="714"
     id="namedview79"
     showgrid="true"
     inkscape:zoom="14.75"
     inkscape:cx="6.7104847"
     inkscape:cy="2.0534204"
     inkscape:window-x="0"
     inkscape:window-y="28"
     inkscape:window-maximized="1"
     inkscape:current-layer="g74">
    <inkscape:grid
       type="xygrid"
       id="grid47" />
  </sodipodi:namedview>
  <linearGradient
     id="a">
    <stop
       offset="0"
       stop-color="#828282"
       id="stop2" />
    <stop
       offset="1"
       stop-color="#828282"
       stop-opacity="0"
       id="stop4" />
  </linearGradient>
  <linearGradient
     id="b"
     gradientTransform="matrix(0.30769997,0,0,1.3043803,46.358974,-8.351998)"
     gradientUnits="userSpaceOnUse"
     x1="46.048"
     x2="46.048"
     y1="128.01709"
     y2="16.6203">
    <stop
       offset="0"
       stop-color="#c7cdd7"
       id="stop7" />
    <stop
       offset="1"
       stop-color="#fff"
       id="stop9" />
  </linearGradient>
  <linearGradient
     id="c">
    <stop
       offset="0"
       stop-color="#0968ef"
       id="stop12" />
    <stop
       offset="1"
       stop-color="#aecffc"
       id="stop14" />
  </linearGradient>
  <linearGradient
     id="d"
     gradientTransform="matrix(0.3077,0,0,1.3091052,44.717949,-36.656871)"
     gradientUnits="userSpaceOnUse"
     x1="114.6638"
     x2="114.6638"
     y1="101.334"
     y2="112.0004">
    <stop
       offset="0"
       stop-color="#c9d1dc"
       id="stop17" />
    <stop
       offset="1"
       stop-color="#c9d1dc"
       stop-opacity="0"
       id="stop19" />
  </linearGradient>
  <linearGradient
     id="e"
     gradientTransform="matrix(2,0,0,1.2,32.000002,-9.599998)"
     gradientUnits="userSpaceOnUse"
     x1="8"
     x2="8"
     xlink:href="#a"
     y1="88"
     y2="108" />
  <linearGradient
     id="f"
     gradientTransform="matrix(0.183616,0,0,-0.01462967,-0.962917,-7.25873)"
     gradientUnits="userSpaceOnUse"
     x1="67.266975"
     x2="58.405445"
     y1="280.20084"
     y2="-11417.511">
    <stop
       offset="0"
       id="stop23" />
    <stop
       offset="1"
       stop-color="#fff"
       id="stop25" />
  </linearGradient>
  <linearGradient
     id="g"
     gradientTransform="matrix(2,0,0,1.2,72.000002,-9.599998)"
     gradientUnits="userSpaceOnUse"
     x1="8"
     x2="8"
     xlink:href="#a"
     y1="88"
     y2="108" />
  <linearGradient
     id="h"
     gradientTransform="rotate(180,54.01775,44.000005)"
     gradientUnits="userSpaceOnUse"
     x1="113.15723"
     x2="39.268185"
     xlink:href="#c"
     y1="25.786163"
     y2="25.786163" />
  <linearGradient
     id="i"
     gradientTransform="matrix(1,0,0,-1,19.964498,88.00001)"
     gradientUnits="userSpaceOnUse"
     x1="113.15723"
     x2="39.268185"
     xlink:href="#c"
     y1="25.786163"
     y2="25.786163" />
  <g
     id="g74"
     transform="scale(0.125)">
    <path
       id="path31"
       d="m 48,96 h 32 v 17.4543 H 48 Z"
       style="opacity:0.764706;fill:url(#d)"
       inkscape:connector-curvature="0" />
    <path
       id="path33"
       d="M 48,16 H 80 V 96 H 48 Z"
       style="fill:url(#b)"
       inkscape:connector-curvature="0" />
    <text
       id="text37"
       y="202.81038"
       x="552.36987">
      <tspan
         id="tspan35"
         y="219.61037"
         x="552.36987"
         style="fill:#555555" />
    </text>
    <path
       id="path41"
       d="m 40,96 h 8 v 24 h -8 z"
       style="fill:url(#e)"
       inkscape:connector-curvature="0" />
    <text
       id="text45"
       y="202.81038"
       x="284.18808">
      <tspan
         id="tspan43"
         y="219.61037"
         x="284.18808"
         style="fill:#555555" />
    </text>
    <text
       id="text49"
       y="133.87732"
       x="-10.252362">
      <tspan
         id="tspan47"
         y="150.67731"
         x="-10.252362"
         style="fill:#555555" />
    </text>
    <text
       id="text53"
       y="-39.856026"
       x="161.66467">
      <tspan
         id="tspan51"
         y="-23.056038"
         x="161.66467"
         style="fill:#555555" />
    </text>
    <path
       style="fill:url(#f)"
       id="path55"
       d="m 40,16 v 4 20 4 20 4 V 94.3125 96 h 8 32 8 V 94.3125 68 64 44 40 20 16 Z m 8,4 H 80 V 40 H 48 Z m 0,24 H 80 V 64 H 48 Z m 0,24 H 80 V 94.3125 H 48 Z"
       inkscape:connector-curvature="0" />
    <text
       id="text59"
       y="191.74835"
       x="681.37421">
      <tspan
         id="tspan57"
         y="208.54834"
         x="681.37421"
         style="fill:#555555" />
    </text>
    <text
       id="text63"
       y="122.81529"
       x="386.93372">
      <tspan
         id="tspan61"
         y="139.61528"
         x="386.93372"
         style="fill:#555555" />
    </text>
    <text
       id="text67"
       y="269.00107"
       x="916.79553">
      <tspan
         id="tspan65"
         y="285.80106"
         x="916.79553"
         style="fill:#555555" />
    </text>
    <path
       id="path69"
       d="m 80,96 h 8 v 24 h -8 z"
       style="fill:url(#g)"
       inkscape:connector-curvature="0" />
    <g
       id="g75"
       style="fill-rule:evenodd">
      <path
         id="path71"
         d="m 128.12047,60 -24,20.00001 -3.97484,-3.97484 L 107.94437,64 H 88 v -8 h 19.94437 L 100.14563,44.1761 104.12047,40 Z"
         style="fill:url(#i)"
         inkscape:connector-curvature="0" />
      <path
         id="path73"
         d="m -0.12047,60 24,20.00001 3.97484,-3.97484 L 20.05563,64 H 40 V 56 H 20.05563 L 27.85437,44.1761 23.87953,40 Z"
         style="fill:url(#h)"
         inkscape:connector-curvature="0" />
    </g>
  </g>
</svg>
